svgs/mindustry.svg

<svg xmlns="http://www.w3.org/2000/svg" viewBox="0 0 192 192"><path d="M66.075 16.5 16.58 66.035v59.93l10.152 10.111 35.918-35.999h66.822l35.878 35.999 10.07-10.111v-59.93L126.007 16.5h-13.658v46.518l-9.418 9.417H89.273l-9.54-9.417V16.5Zm8.928 108.65-29.639 29.639L66.116 175.5h59.85l20.752-20.752-29.599-29.598Z" fill="none" stroke="#000" stroke-width="12" stroke-linecap="round" stroke-linejoin="round"/></svg>

<svg
    xmlns="http://www.w3.org/2000/svg"
    viewBox="0 0 192 192"
    id="vector">
    <path
        id="path"
        d="M 66.075 16.5 L 16.58 66.035 L 16.58 125.965 L 26.732 136.076 L 62.65 100.077 L 129.472 100.077 L 165.35 136.076 L 175.42 125.965 L 175.42 66.035 L 126.007 16.5 L 112.349 16.5 L 112.349 63.018 L 102.931 72.435 L 89.273 72.435 L 79.733 63.018 L 79.733 16.5 Z M 75.003 125.15 L 45.364 154.789 L 66.116 175.5 L 125.966 175.5 L 146.718 154.748 L 117.119 125.15 Z"
        fill="none"
        stroke="#000000"
        stroke-width="12"
        stroke-linecap="round"
        stroke-linejoin="round"/>
</svg>
